public/images/beach.svg

<svg xmlns:xlink="http://www.w3.org/1999/xlink" xmlns="http://www.w3.org/2000/svg" width="20" height="20" viewBox="0 0 20 20" fill="none">
<g clip-path="url(#clip0)">
<path d="M19.9901 15.4616C19.9486 15.3052 19.7883 15.212 19.6318 15.2535C19.3658 15.324 19.1758 15.4409 19.0082 15.5441C18.7633 15.6948 18.5699 15.8138 18.1411 15.8138C17.7151 15.8138 17.5217 15.6948 17.2768 15.5441C17.0052 15.377 16.6973 15.1875 16.1054 15.1875C15.5136 15.1875 15.2057 15.377 14.9341 15.5441C14.6892 15.6948 14.4958 15.8138 14.0698 15.8138C13.6439 15.8138 13.4504 15.6948 13.2056 15.5441C12.9339 15.377 12.6261 15.1875 12.0342 15.1875C11.4424 15.1875 11.1345 15.377 10.8629 15.5441C10.6183 15.6947 10.425 15.8136 10 15.8138C9.57502 15.8136 9.38174 15.6946 9.13714 15.5441C8.8655 15.377 8.55761 15.1875 7.96578 15.1875C7.37395 15.1875 7.06606 15.377 6.79442 15.5441C6.54954 15.6948 6.35614 15.8138 5.93017 15.8138C5.50416 15.8138 5.31076 15.6948 5.06588 15.5441C4.79424 15.377 4.48635 15.1875 3.89452 15.1875C3.30269 15.1875 2.9948 15.377 2.72316 15.5441C2.47828 15.6948 2.28489 15.8138 1.8561 15.8138C1.43009 15.8138 1.23669 15.6948 0.99181 15.5441C0.824155 15.4409 0.634117 15.324 0.368143 15.2535C0.21166 15.212 0.0513483 15.3052 0.00986421 15.4616C-0.0316198 15.6179 0.0615435 15.7784 0.217949 15.8198C0.400525 15.8683 0.532243 15.9493 0.684742 16.0431C0.95638 16.2103 1.26427 16.3998 1.85891 16.3998C2.45074 16.3998 2.75863 16.2103 3.03027 16.0432C3.27515 15.8925 3.46855 15.7734 3.89452 15.7734C4.32049 15.7734 4.51389 15.8925 4.75877 16.0431C5.03041 16.2103 5.3383 16.3998 5.93013 16.3998C6.52192 16.3998 6.82981 16.2103 7.10145 16.0432C7.34633 15.8925 7.53973 15.7734 7.9657 15.7734C8.39171 15.7734 8.58511 15.8925 8.82999 16.0432C9.10101 16.2099 9.40811 16.3989 9.99725 16.3998H9.99994H10.0026C10.5918 16.3989 10.8989 16.2099 11.1699 16.0432C11.4148 15.8925 11.6082 15.7734 12.0341 15.7734C12.4602 15.7734 12.6536 15.8925 12.8984 16.0432C13.1701 16.2103 13.478 16.3998 14.0698 16.3998C14.6616 16.3998 14.9695 16.2103 15.2412 16.0432C15.486 15.8925 15.6794 15.7734 16.1054 15.7734C16.5314 15.7734 16.7248 15.8925 16.9697 16.0431C17.2413 16.2103 17.5492 16.3998 18.1438 16.3998C18.7357 16.3998 19.0435 16.2103 19.3152 16.0431C19.4677 15.9493 19.5994 15.8682 19.782 15.8198C19.9384 15.7784 20.0316 15.6179 19.9901 15.4616Z" fill="black"/>
<path d="M18.1416 17.3798C17.7155 17.3798 17.5221 17.2608 17.2773 17.1101C17.0056 16.9429 16.6977 16.7534 16.1059 16.7534C15.5141 16.7534 15.2062 16.9429 14.9345 17.1101C14.6897 17.2608 14.4963 17.3798 14.0703 17.3798C13.6443 17.3798 13.4509 17.2608 13.206 17.1101C12.9344 16.9429 12.6265 16.7534 12.0347 16.7534C11.4429 16.7534 11.135 16.9429 10.8633 17.1101C10.6187 17.2606 10.4255 17.3795 10.0005 17.3798C9.57548 17.3795 9.3822 17.2606 9.1376 17.1101C8.86596 16.9429 8.55807 16.7534 7.96624 16.7534C7.37441 16.7534 7.06652 16.9429 6.79488 17.1101C6.55 17.2608 6.3566 17.3798 5.93063 17.3798C5.50462 17.3798 5.31122 17.2608 5.06634 17.1101C4.7947 16.9429 4.48681 16.7534 3.89498 16.7534C3.30315 16.7534 2.99526 16.9429 2.72362 17.1101C2.47874 17.2608 2.28535 17.3798 1.85937 17.3798C1.69758 17.3798 1.56641 17.511 1.56641 17.6727C1.56641 17.8345 1.69758 17.9657 1.85937 17.9657C2.4512 17.9657 2.75909 17.7762 3.03073 17.6091C3.27561 17.4584 3.46901 17.3394 3.89498 17.3394C4.32095 17.3394 4.51435 17.4584 4.75923 17.6091C5.03087 17.7762 5.33876 17.9657 5.93059 17.9657C6.52238 17.9657 6.83027 17.7762 7.10191 17.6091C7.34679 17.4584 7.54019 17.3394 7.96616 17.3394C8.39217 17.3394 8.58557 17.4584 8.83045 17.6091C9.10146 17.7759 9.40853 17.9648 9.99763 17.9657H10.0004C10.0004 17.9657 10.0022 17.9657 10.0032 17.9657C10.5923 17.9648 10.8993 17.7759 11.1704 17.6091C11.4152 17.4584 11.6086 17.3394 12.0346 17.3394C12.4606 17.3394 12.654 17.4584 12.8989 17.6091C13.1705 17.7762 13.4784 17.9657 14.0703 17.9657C14.6621 17.9657 14.97 17.7762 15.2416 17.6091C15.4865 17.4584 15.6799 17.3394 16.1059 17.3394C16.5318 17.3394 16.7252 17.4584 16.9701 17.6091C17.2418 17.7762 17.5496 17.9657 18.1415 17.9657C18.3033 17.9657 18.4344 17.8345 18.4344 17.6727C18.4344 17.511 18.3033 17.3798 18.1416 17.3798Z" fill="black"/>
<path d="M6.26367 10.7828C6.26367 12.8439 7.9405 14.5207 10.0015 14.5207C12.0626 14.5207 13.7394 12.8438 13.7394 10.7828C13.7394 10.0079 13.5043 9.26448 13.0596 8.63296C12.9665 8.50065 12.7837 8.46897 12.6514 8.5621C12.5191 8.65526 12.4874 8.838 12.5805 8.9703C12.9553 9.50256 13.1535 10.1293 13.1535 10.7828C13.1535 12.5208 11.7395 13.9347 10.0015 13.9347C8.26358 13.9347 6.84961 12.5208 6.84961 10.7828C6.84961 9.04483 8.26358 7.63086 10.0015 7.63086C10.6149 7.63086 11.2093 7.80706 11.7206 8.14042C11.8561 8.22878 12.0377 8.19058 12.126 8.05503C12.2144 7.91949 12.1761 7.73796 12.0406 7.64961C11.4339 7.25402 10.7288 7.04492 10.0015 7.04492C7.94046 7.04492 6.26367 8.72171 6.26367 10.7828Z" fill="black"/>
<path d="M1.5459 11.0759H4.99082C5.15262 11.0759 5.28379 10.9448 5.28379 10.783C5.28379 10.6212 5.15262 10.49 4.99082 10.49H1.5459C1.3841 10.49 1.25293 10.6212 1.25293 10.783C1.25293 10.9448 1.3841 11.0759 1.5459 11.0759Z" fill="black"/>
<path d="M14.7188 10.783C14.7188 10.9448 14.8499 11.0759 15.0117 11.0759H18.4566C18.6184 11.0759 18.7496 10.9448 18.7496 10.783C18.7496 10.6212 18.6184 10.49 18.4566 10.49H15.0117C14.8499 10.49 14.7188 10.6212 14.7188 10.783Z" fill="black"/>
<path d="M10.002 6.06504C10.1637 6.06504 10.2949 5.93387 10.2949 5.77207V2.32715C10.2949 2.16535 10.1637 2.03418 10.002 2.03418C9.84016 2.03418 9.70898 2.16535 9.70898 2.32715V5.77207C9.70898 5.93391 9.84016 6.06504 10.002 6.06504Z" fill="black"/>
<path d="M12.3604 6.6972C12.4065 6.72388 12.4569 6.7365 12.5066 6.7365C12.6079 6.7365 12.7063 6.68396 12.7606 6.58998L13.8567 4.69146C13.9376 4.55135 13.8896 4.37217 13.7495 4.29127C13.6093 4.21033 13.4302 4.25838 13.3493 4.3985L12.2532 6.29701C12.1723 6.43713 12.2203 6.61631 12.3604 6.6972Z" fill="black"/>
<path d="M7.24285 6.58996C7.29711 6.68395 7.39559 6.73649 7.49684 6.73649C7.54653 6.73649 7.59692 6.72383 7.64305 6.69719C7.78317 6.61629 7.83117 6.43711 7.75028 6.29699L6.65414 4.39848C6.57324 4.25836 6.39406 4.21035 6.25395 4.29125C6.11383 4.37215 6.06582 4.55133 6.14672 4.69145L7.24285 6.58996Z" fill="black"/>
<path d="M14.1944 13.5418L15.4921 14.2911C15.5382 14.3177 15.5886 14.3304 15.6383 14.3304C15.7396 14.3304 15.838 14.2778 15.8923 14.1838C15.9732 14.0437 15.9252 13.8645 15.7851 13.7836L14.4874 13.0344C14.3472 12.9535 14.1681 13.0015 14.0872 13.1416C14.0062 13.2817 14.0542 13.4609 14.1944 13.5418Z" fill="black"/>
<path d="M3.61725 7.43517L5.51581 8.53131C5.56194 8.55795 5.61233 8.5706 5.66202 8.5706C5.76327 8.5706 5.86175 8.51807 5.91601 8.42408C5.9969 8.28396 5.9489 8.10478 5.80878 8.02389L3.91022 6.92775C3.77007 6.84681 3.59089 6.89482 3.51003 7.03498C3.42909 7.1751 3.4771 7.35424 3.61725 7.43517Z" fill="black"/>
<path d="M14.3411 8.57034C14.3908 8.57034 14.4412 8.55769 14.4873 8.53105L16.3859 7.43491C16.526 7.35401 16.574 7.17483 16.4931 7.03472C16.4122 6.89456 16.233 6.84659 16.0929 6.92749L14.1944 8.02362C14.0543 8.10452 14.0063 8.2837 14.0871 8.42382C14.1414 8.5178 14.2399 8.57034 14.3411 8.57034Z" fill="black"/>
<path d="M5.51551 13.0344L4.21781 13.7836C4.0777 13.8645 4.02969 14.0437 4.11059 14.1838C4.16485 14.2778 4.26332 14.3303 4.36457 14.3303C4.41426 14.3303 4.46465 14.3177 4.51078 14.291L5.80848 13.5418C5.94859 13.4609 5.9966 13.2817 5.9157 13.1416C5.8348 13.0015 5.65562 12.9535 5.51551 13.0344Z" fill="black"/>
</g>
<defs>
<clipPath id="clip0">
<rect width="20" height="20" fill="white"/>
</clipPath>
</defs>
</svg>

<svg xmlns="http://www.w3.org/2000/svg" width="20" height="20" fill="none"><g fill="#000" clip-path="url(#a)"><path d="M19.99 15.462a.293.293 0 0 0-.358-.208c-.266.07-.456.187-.624.29-.245.15-.438.27-.867.27-.426 0-.62-.12-.864-.27-.272-.167-.58-.357-1.172-.357-.591 0-.9.19-1.17.357-.246.15-.44.27-.865.27-.426 0-.62-.12-.864-.27-.272-.167-.58-.357-1.172-.357s-.9.19-1.171.357c-.245.15-.438.27-.863.27s-.618-.12-.863-.27c-.271-.167-.58-.357-1.171-.357s-.9.19-1.172.357c-.244.15-.438.27-.864.27s-.62-.12-.864-.27c-.272-.167-.58-.357-1.171-.357s-.9.19-1.172.357c-.245.15-.438.27-.867.27-.426 0-.62-.12-.864-.27a2.2 2.2 0 0 0-.624-.29.293.293 0 1 0-.15.566c.183.048.314.13.467.223.271.167.58.357 1.174.357.592 0 .9-.19 1.171-.357.245-.15.439-.27.865-.27.425 0 .619.12.864.27.271.167.58.357 1.171.357s.9-.19 1.171-.357c.245-.15.439-.27.865-.27s.62.12.864.27c.271.167.578.356 1.167.357h.006c.589-.001.896-.19 1.167-.357.245-.15.438-.27.864-.27s.62.12.864.27c.272.167.58.357 1.172.357s.9-.19 1.171-.357c.245-.15.438-.27.864-.27s.62.12.865.27c.271.167.58.357 1.174.357.592 0 .9-.19 1.171-.357.153-.094.284-.175.467-.223a.293.293 0 0 0 .208-.358M18.142 17.38c-.427 0-.62-.12-.865-.27-.271-.167-.58-.357-1.171-.357s-.9.19-1.172.357c-.244.15-.438.27-.864.27s-.62-.12-.864-.27c-.272-.167-.58-.357-1.171-.357s-.9.19-1.172.357c-.244.15-.437.27-.862.27-.426 0-.619-.12-.863-.27-.272-.167-.58-.357-1.172-.357s-.9.19-1.171.357c-.245.15-.438.27-.864.27s-.62-.12-.865-.27c-.271-.167-.58-.357-1.171-.357s-.9.19-1.171.357c-.245.15-.439.27-.865.27a.293.293 0 0 0 0 .586c.592 0 .9-.19 1.172-.357.245-.15.438-.27.864-.27s.62.12.864.27c.272.167.58.357 1.172.357.591 0 .9-.19 1.17-.357.246-.15.44-.27.865-.27.426 0 .62.12.864.27.271.167.579.356 1.168.357h.005c.59-.001.896-.19 1.167-.357.245-.15.439-.27.865-.27s.619.12.864.27c.272.167.58.357 1.171.357s.9-.19 1.172-.357c.244-.15.438-.27.864-.27s.62.12.864.27c.272.167.58.357 1.172.357a.293.293 0 0 0 0-.586M6.264 10.783a3.74 3.74 0 0 0 3.738 3.738 3.74 3.74 0 0 0 3.737-3.738c0-.775-.235-1.519-.68-2.15a.293.293 0 0 0-.478.337 3.156 3.156 0 0 1-2.579 4.964 3.155 3.155 0 0 1-3.152-3.151 3.156 3.156 0 0 1 4.87-2.643.293.293 0 1 0 .32-.49 3.72 3.72 0 0 0-2.038-.605 3.74 3.74 0 0 0-3.738 3.738M1.546 11.076H4.99a.293.293 0 1 0 0-.586H1.546a.293.293 0 0 0 0 .586M14.719 10.783c0 .162.13.293.293.293h3.445a.293.293 0 1 0 0-.586h-3.445a.293.293 0 0 0-.293.293M10.002 6.065a.293.293 0 0 0 .293-.293V2.327a.293.293 0 0 0-.586 0v3.445c0 .162.131.293.293.293M12.36 6.697a.29.29 0 0 0 .4-.107l1.097-1.899a.293.293 0 1 0-.508-.292l-1.096 1.898c-.08.14-.033.32.107.4M7.243 6.59a.293.293 0 1 0 .507-.293L6.654 4.398a.293.293 0 1 0-.507.293zM14.194 13.542l1.298.75a.29.29 0 0 0 .4-.108.293.293 0 0 0-.107-.4l-1.298-.75a.293.293 0 1 0-.293.508M3.617 7.435l1.899 1.096a.29.29 0 0 0 .4-.107.293.293 0 0 0-.107-.4L3.91 6.928a.293.293 0 1 0-.293.507M14.341 8.57q.076 0 .146-.039l1.899-1.096a.293.293 0 0 0-.293-.508l-1.899 1.097a.293.293 0 0 0 .147.546M5.516 13.034l-1.298.75a.293.293 0 0 0 .293.507l1.297-.75a.293.293 0 0 0-.292-.507"/></g><defs><clipPath id="a"><path fill="#fff" d="M0 0h20v20H0z"/></clipPath></defs></svg>
